X: 11613
T: Egypt Road
R: jig
M: 6/8
K: Adorian
|:A2A ABc|BGG DGB|AEE ABc|gfg BdB|A2A ABc|
BGG DGB|1 cBc dcd|egB ABG:|2 cBc dcd|egB A2B||
|:cgg ede|cBc dBG|cgg ede|dBG A2B|cgg ede|
cBc dBG|1 cBc deg|edB A2B:|2 cBc deg|edB A3||

